src/com/lilithsthrone/res/crafting/essenceArcane.svg

<?xml version="1.0" encoding="UTF-8" standalone="no"?>
<!-- Created with Inkscape (http://www.inkscape.org/) -->

<svg
   xmlns:dc="http://purl.org/dc/elements/1.1/"
   xmlns:cc="http://creativecommons.org/ns#"
   xmlns:rdf="http://www.w3.org/1999/02/22-rdf-syntax-ns#"
   xmlns:svg="http://www.w3.org/2000/svg"
   xmlns="http://www.w3.org/2000/svg"
   xmlns:sodipodi="http://sodipodi.sourceforge.net/DTD/sodipodi-0.dtd"
   xmlns:inkscape="http://www.inkscape.org/namespaces/inkscape"
   width="100%"
   height="100%"
   viewBox="0 0 64.000001 64.000001"
   id="svg4311"
   version="1.1"
   inkscape:version="0.91 r13725"
   sodipodi:docname="essenceArcane.svg">
  <defs
     id="defs4313">
    <inkscape:path-effect
       effect="powerstroke"
       id="path-effect4155"
       is_visible="true"
       offset_points="0.92799346,1.2886104"
       sort_points="true"
       interpolator_type="Linear"
       interpolator_beta="0.2"
       start_linecap_type="zerowidth"
       linejoin_type="round"
       miter_limit="4"
       end_linecap_type="zerowidth"
       cusp_linecap_type="round" />
    <inkscape:path-effect
       effect="powerstroke"
       id="path-effect4151"
       is_visible="true"
       offset_points="0,0.5"
       sort_points="true"
       interpolator_type="CubicBezierJohan"
       interpolator_beta="0.2"
       start_linecap_type="zerowidth"
       linejoin_type="round"
       miter_limit="4"
       end_linecap_type="zerowidth"
       cusp_linecap_type="round" />
    <inkscape:path-effect
       effect="powerstroke"
       id="path-effect4147"
       is_visible="true"
       offset_points="0,0.5"
       sort_points="true"
       interpolator_type="CubicBezierJohan"
       interpolator_beta="0.2"
       start_linecap_type="zerowidth"
       linejoin_type="round"
       miter_limit="4"
       end_linecap_type="zerowidth"
       cusp_linecap_type="round" />
    <inkscape:path-effect
       effect="powerstroke"
       id="path-effect4183"
       is_visible="true"
       offset_points="0.238227,0.51804536"
       sort_points="true"
       interpolator_type="Linear"
       interpolator_beta="0.2"
       start_linecap_type="zerowidth"
       linejoin_type="round"
       miter_limit="4"
       end_linecap_type="zerowidth"
       cusp_linecap_type="round" />
    <inkscape:path-effect
       effect="powerstroke"
       id="path-effect4258"
       is_visible="true"
       offset_points="0.26733603,0.17738073"
       sort_points="true"
       interpolator_type="Linear"
       interpolator_beta="0.2"
       start_linecap_type="zerowidth"
       linejoin_type="round"
       miter_limit="4"
       end_linecap_type="zerowidth"
       cusp_linecap_type="round" />
  </defs>
  <sodipodi:namedview
     id="base"
     pagecolor="#ffffff"
     bordercolor="#666666"
     borderopacity="1.0"
     inkscape:pageopacity="0.0"
     inkscape:pageshadow="2"
     inkscape:zoom="3.959798"
     inkscape:cx="-19.32254"
     inkscape:cy="40.132428"
     inkscape:document-units="px"
     inkscape:current-layer="layer5"
     showgrid="false"
     units="px"
     inkscape:window-width="2560"
     inkscape:window-height="1388"
     inkscape:window-x="-8"
     inkscape:window-y="-8"
     inkscape:window-maximized="1"
     showguides="false" />
  <metadata
     id="metadata4316">
    <rdf:RDF>
      <cc:Work
         rdf:about="">
        <dc:format>image/svg+xml</dc:format>
        <dc:type
           rdf:resource="http://purl.org/dc/dcmitype/StillImage" />
        <dc:title />
      </cc:Work>
    </rdf:RDF>
  </metadata>
  <g
     inkscape:groupmode="layer"
     id="layer5"
     inkscape:label="Stage5"
     style="display:inline;opacity:1">
    <path
       sodipodi:type="star"
       style="fill:#ff8080;fill-opacity:1;stroke:#000000;stroke-width:0.73031849;stroke-linecap:round;stroke-miterlimit:4;stroke-dasharray:none;stroke-dashoffset:0;stroke-opacity:1"
       id="path4168"
       sodipodi:sides="5"
       sodipodi:cx="1.4285713"
       sodipodi:cy="-9.5714273"
       sodipodi:r1="17.431536"
       sodipodi:r2="14.102408"
       sodipodi:arg1="0.90885469"
       sodipodi:arg2="1.5371732"
       inkscape:flatsided="true"
       inkscape:rounded="0"
       inkscape:randomized="0"
       d="M 12.142857,4.1785731 -8.3375598,4.867448 -15.321516,-14.397712 0.8425794,-26.993111 17.816495,-15.512335 Z"
       inkscape:transform-center-x="0.97927869"
       inkscape:transform-center-y="-3.2456342"
       transform="matrix(1.5645444,0.05692315,-0.03980006,1.6319874,29.685873,48.596329)" />
    <path
       style="fill:none;fill-rule:evenodd;stroke:#ff2a2a;stroke-width:3.67545938;stroke-linecap:round;stroke-linejoin:miter;stroke-miterlimit:4;stroke-dasharray:none;stroke-opacity:1"
       d="M 21.106236,48.386446 31.935715,12.944514 43.552792,48.845878 14.21475,26.596221 l 35.770096,0.06563 z"
       id="path4279"
       inkscape:connector-curvature="0" />
    <path
       style="display:inline;opacity:1;fill:#f9f9f9;fill-opacity:1;fill-rule:evenodd;stroke:none;stroke-width:1px;stroke-linecap:butt;stroke-linejoin:miter;stroke-opacity:1"
       d="M 32.58813,6.8299461 C 43.141652,14.150158 45.68552,16.35403 56.6841,24.88989 47.793699,22.27626 34.541579,9.5048609 32.58813,6.8299461 Z"
       id="path4281-0"
       inkscape:connector-curvature="0"
       sodipodi:nodetypes="ccc" />
    <path
       style="display:inline;opacity:1;fill:#000000;fill-opacity:0.44859811;fill-rule:evenodd;stroke:none;stroke-width:1px;stroke-linecap:butt;stroke-linejoin:miter;stroke-opacity:1"
       d="M 48.528934,55.968492 C 36.350582,56.180178 24.675347,56.047986 16.557409,55.981412 13.168111,46.178694 9.9127758,35.093102 6.3878346,24.118699 11.878755,36.064798 12.7552,43.733966 21.138496,50.327266 c 6.025034,4.738571 15.106093,4.469879 27.390438,5.641226 z"
       id="path4283-0"
       inkscape:connector-curvature="0"
       sodipodi:nodetypes="cccsc" />
  </g>
</svg>

<svg xmlns="http://www.w3.org/2000/svg" viewBox="0 0 64 64">
    <path fill="#ff8080" stroke="#000" stroke-linecap="round" stroke-width=".73" d="M12.143 4.179l-20.48.688-6.985-19.265L.843-26.993l16.973 11.48z" transform="matrix(1.56454 .05692 -.0398 1.63199 29.686 48.596)"/>
    <path fill="none" stroke="#ff2a2a" stroke-linecap="round" stroke-width="3.675" d="M21.106 48.386l10.83-35.441 11.617 35.9-29.338-22.249 35.77.066z"/>
    <path fill="#f9f9f9" fill-rule="evenodd" d="M32.588 6.83c10.554 7.32 13.098 9.524 24.096 18.06-8.89-2.614-22.142-15.385-24.096-18.06z"/>
    <path fill-opacity=".449" fill-rule="evenodd" d="M48.529 55.968c-12.178.212-23.854.08-31.972.013-3.389-9.802-6.644-20.888-10.17-31.862 5.492 11.946 6.368 19.615 14.751 26.208 6.026 4.739 15.107 4.47 27.39 5.641z"/>
</svg>
